**kern
*clefF4
*k[]
*M4/4
=1
1C 1G 1c 1e
=2
*^
1GG 1F 1d	2c
.	2B
*v	*v
=3
1C 1E 1c 1c
=4||
1C 1G 1c [1e
=5
*^
2e]	1GG 1F 1B
2d	.
*v	*v
=6
1C 1E 1c 1c
=7||
(1C 1G 1c 1e
=8
*^
1GG) 1B 1d	2G
.	2F
*v	*v
=9
1C 1E 1c 1c
=10||
1C 1G [1c [1e
=11
*^
2c] 2e]	1GG 1F
2B 2d	.
*v	*v
=12
1C 1E 1c 1c
!!linebreak:original
=13||
1C [1G 1c 1e
=14
*^
*	*^
2e	2G]	1GG 1B
2d	2F	.
*v	*v	*v
=15
1C 1E 1c 1c
=16||
1C [1G [1c 1e
=17
*^
1GG 1d	2G] 2c]
.	2F 2B
*v	*v
=18
1C 1E 1c 1c
==
*-
!!!system-decoration: [(s1
